src/assets/img/info.svg

<?xml version="1.0"?>
<svg width="20" height="20" xmlns="http://www.w3.org/2000/svg" xmlns:svg="http://www.w3.org/2000/svg" version="1.1">
 <title/>
 <desc/>
 <g class="layer">
  <title>Layer 1</title>
  <g fill="none" fill-rule="evenodd" id="Page-1">
   <g fill="#fff" id="Core" transform="translate(-86.000000, -296.000000)">
    <g id="info-outline" transform="translate(86.000000, 296.000000)">
     <path d="m9,15l2,0l0,-6l-2,0l0,6l0,0zm1,-15c-5.5,0 -10,4.5 -10,10c0,5.5 4.5,10 10,10c5.5,0 10,-4.5 10,-10c0,-5.5 -4.5,-10 -10,-10l0,0zm0,18c-4.4,0 -8,-3.6 -8,-8c0,-4.4 3.6,-8 8,-8c4.4,0 8,3.6 8,8c0,4.4 -3.6,8 -8,8l0,0zm-1,-11l2,0l0,-2l-2,0l0,2l0,0z" id="Shape"/>
    </g>
   </g>
  </g>
 </g>
</svg>

<?xml version="1.0" ?>
<svg height="20px" version="1.1" viewBox="0 0 20 20" width="20px" xmlns="http://www.w3.org/2000/svg"
><title/><desc/><defs/><g fill="none" fill-rule="evenodd" id="Page-1" stroke="none" stroke-width="1"><g fill="#000000" id="Core" transform="translate(-86.000000, -296.000000)"><g id="info-outline" transform="translate(86.000000, 296.000000)"><path d="M9,15 L11,15 L11,9 L9,9 L9,15 L9,15 Z M10,0 C4.5,0 0,4.5 0,10 C0,15.5 4.5,20 10,20 C15.5,20 20,15.5 20,10 C20,4.5 15.5,0 10,0 L10,0 Z M10,18 C5.6,18 2,14.4 2,10 C2,5.6 5.6,2 10,2 C14.4,2 18,5.6 18,10 C18,14.4 14.4,18 10,18 L10,18 Z M9,7 L11,7 L11,5 L9,5 L9,7 L9,7 Z" id="Shape"/></g></g></g></svg>
